!!!COM: Bach, Johann Sebastian
!!!OPR: Joh. Seb. Bachs vierstimmige Choralges‰nge
!!!XEN: Four-part Chorales
!!!OTL: 59. Es woll' uns Gott gen‰dig sein
!!!SCT: BWV 312
!!!SCA: Thematisch-systematisches Verzeichnis der musikalischen Werke Johann Sebastian Bach: Bach-Werke-Verzeichnis (Schmieder)
!!!YOR: Bach Gesellschaft Edition xxxix
!!!ENC: Steven Rasmussen
!!!CDT: 1685/3//-1750/7/28/
!!!OCY: Deutschland
!!!YEC: Copyright (c) 1994, 2000 Center for Computer Assisted Research in the Humanities
!!!YEM: Rights to all derivative editions reserved
!!!YEN: United States of America
**kern	**silbe	**kern	**silbe	**kern	**silbe	**kern	**silbe
*I:[SOPRANO]	*I:[SOPRANO]	*I:[ALTO]	*I:[ALTO]	*I:[TENORE]	*I:[TENORE]	*I:[BASSO]	*I:[BASSO]
*>[A,A,B]	*	*>[A,A,B]	*	*>[A,A,B]	*	*>[A,A,B]	*
*>A	*	*>A	*	*>A	*	*>A	*
*clefG2	*	*clefG2	*	*clefGv2	*	*clefF4	*
*k[]	*	*k[]	*	*k[]	*	*k[]	*
*a:	*	*a:	*	*a:	*	*a:	*
*M4/4	*	*M4/4	*	*M4/4	*	*M4/4	*
4b	Essein	4g#	Essein	4e	Essein	4E	.
=1	=1	=1	=1	=1	=1	=1	=1
4cc	woll'Ant-	8aL	woll'Ant-	8eL	woll'Ant-	4.A	.
.	.	8e	.	8cJ	.	.	.
4b	uns-litz	8f	.	8dL	uns-litz	.	.
.	.	[8eJ	.	8eJ	.	8G	.
4a	Gottuns	8e]	.	4A	Gottuns	4.F	.
.	.	8d	uns-litz	.	.	.	.
8bL	ge-mit	[4g	Gottuns	4G	ge-mit	.	.
8ccJ	.	.	.	.	.	8E	.
=2	=2	=2	=2	=2	=2	=2	=2
(4dd	-n√§-hel-	8gL]	.	4A	-n√§-hel-	4.D	.
.	.	8fJ	.	.	.	.	.
4ee	.	8gL	ge-mit	4B-	.	.	.
.	.	8eJ	.	.	.	8C#	.
4dd)	.	4f	-n√§-hel-	8AL	.	4D	.
.	.	.	.	8G#J	.	.	.
4cc	-dig-lem	8eL	-dig-lem	4A	-dig-lem	4AA	.
.	.	8d#J	.	.	.	.	.
=3	=3	=3	=3	=3	=3	=3	=3
2b;	seinSchein	2e;	.	(4A	.	2E;	.
.	.	.	.	4G#;)	.	.	.
4r	.	4r	.	4r	.	4r	.
4dd	under-	4f	.	8AL	.	4D	.
.	.	.	.	8BJ	.	.	.
=4	=4	=4	=4	=4	=4	=4	=4
4cc	sei--leucht'	8eL	.	4c	.	4A	.
.	.	8f#J	.	.	.	.	.
4b	-nenzum	4g	.	4d	.	8GL	.
.	.	.	.	.	.	8FJ	.
8ccL	Se-ew'-	4g	.	8eL	.	4E	.
8bJ	.	.	.	8dJ	.	.	.
4a	-gen-gen	4fn	.	4c	.	8FL	.
.	.	.	.	.	.	8EJ	.
=5	=5	=5	=5	=5	=5	=5	=5
(4g	ge-Le-	4.e	.	(8B-	.	(8DL	.
.	.	.	.	4A	.	8C#J	.
4f)	.	.	.	.	.	4D)	.
.	.	16dLL	.	8Bn)	.	.	.
.	.	16cJJ	.	.	.	.	.
4e;	-ben;-ben,	4B;	.	4G#;	.	4E;	.
=:|!	=:|!	=:|!	=:|!	=:|!	=:|!	=:|!	=:|!
*>B	*	*>B	*	*>B	*	*>B	*
4g	dass	8eL	.	4B	.	4E	.
.	.	8dJ	.	.	.	.	.
=6	=6	=6	=6	=6	=6	=6	=6
4f	wir	8cL	.	8AL	.	8AA	wir
.	.	[8dJ	.	[8GJ	.	8BB	er-
4e	er-	8d]	.	8G]	.	[4C	-ken-
.	.	8c	.	8A	.	.	.
4d	-ken-	8AL	.	4F	.	8CL]	.
.	.	[8GJ	.	.	.	8BBJ	.
8eL	-nen	8G]	.	4E	.	8CL	-nen
8dJ	.	8G#	.	.	.	8BBJ	.
=7	=7	=7	=7	=7	=7	=7	=7
8cL	sei-	4.A	.	4E	.	8AAL	.
8dJ	.	.	.	.	.	8GGJ	.
4d	-ne	.	.	4A	.	4FF	.
.	.	8B	.	.	.	.	.
4e;	Werk'	(8cL	.	(8AL	.	4EE;	.
.	.	8B;J)	.	8G#;J)	.	.	.
4b	und,	4e	.	4G#	.	4E	.
=8	=8	=8	=8	=8	=8	=8	=8
4cc	was	8eL	.	16ALL	.	4.AA	.
.	.	.	.	16BJJ	.	.	.
.	.	8aJ	.	4c	.	.	.
8bL	ihn	8gL	.	.	.	.	.
8aJ	.	8fJ	.	8d	.	8BB	.
4g	liebt,	4e	.	8eL	.	4.C	.
.	.	.	.	8EJ	.	.	.
8aL	auf	4d	.	8F#L	.	.	.
8bJ	.	.	.	8G#J	.	8BB	.
=9	=9	=9	=9	=9	=9	=9	=9
4cc	Er-	8cL	.	4.A	.	8AAL	.
.	.	8eJ	.	.	.	8A	.
4dd	.	4a	.	.	.	8F	.
.	.	.	.	8f	.	8DJ	.
4b;	-den,	(8aL	.	4e;	.	4E;	.
.	.	8g#;J)	.	.	.	.	.
4ee	und	8gnL	.	8GL	.	4C	.
.	.	8f#J	.	8AJ	.	.	.
=10	=10	=10	=10	=10	=10	=10	=10
8ddL	Je-	4g	.	8BL	.	4G	.
8ccJ	.	.	.	8cJ	.	.	.
8bL	-sus	4g	.	4d	.	8GGL	.
8ccJ	.	.	.	.	.	8AAJ	.
4dd	Chri-	4.g	.	4d	.	8BB	Chri-
.	.	.	.	.	.	8C	-stus
4a	-stus	.	.	4d	.	[4D	Heil
.	.	8f	.	.	.	.	.
=11	=11	=11	=11	=11	=11	=11	=11
4g	Heil	4.e	.	8eL	.	8DL]	.
.	.	.	.	8AJ	.	8C#J	.
4f	und	.	.	4A	.	4D	und
.	.	8d	.	.	.	.	.
4e;	St√§rk'	(8dL	.	4A;	.	4AA;	.
.	.	8c#;J)	.	.	.	.	.
4d	be-	8AL	.	4F	.	4D	.
.	.	8BJ	.	.	.	.	.
=12	=12	=12	=12	=12	=12	=12	=12
4g	-kannt	4c	.	4.E	.	8CL	.
.	.	.	.	.	.	8BBJ	.
4a	den	4c	.	.	.	4AA	.
.	.	.	.	8F#	.	.	.
8bL	Hei-	8BL	.	(4G	Hei-	(4E	.
8ccJ	.	8eJ	.	.	.	.	.
4dd	-den	8dL	.	8AL	.	8F#L	.
.	.	8eJ	.	8BJ	.	8G#J	.
=13	=13	=13	=13	=13	=13	=13	=13
4cc	wer-	8e	.	8c)	.	8A)	.
.	.	4a	.	8e	-den	8C	.
4b	.	.	.	8fL	wer-	8DL	.
.	.	8g#	.	8eJ	.	8EJ	.
4a;	-den	4a;	.	4c;	-den	4F;	.
4cc	und	8gnL	.	4e	.	8EL	.
.	.	8aJ	.	.	.	8F#J	.
=14	=14	=14	=14	=14	=14	=14	=14
4b	sie	8bL	.	4d	.	4.G	.
.	.	8gJ	.	.	.	.	.
4a	zu	8eL	.	8c#L	.	.	.
.	.	8fJ	.	8dJ	.	8F	.
8gL	Gott	8BL	.	8eL	.	8EL	.
8fJ	.	8dJ	.	8BJ	.	8DJ	.
8eL	be-	8gL	be-	4cn	be-	8CL	be-
8fJ	.	8fJ	.	.	.	8AAJ	.
=15	=15	=15	=15	=15	=15	=15	=15
4g	-keh-	8fL	-keh-	8dL	-keh-	8BBL	-keh-
.	.	[8e	.	[8A	.	8C#	.
4f	.	8e]	.	8A]	.	8D	.
.	.	[8dJ	.	[8BJ	.	8GG#J	.
[2e	-ren.	8dL]	.	8BL]	.	8AAL	.
.	.	16eL	.	8EJ	.	8BB	.
.	.	16dJJ	.	.	.	.	.
.	.	4c	.	[4A	.	8Cn	.
.	.	.	.	.	.	8DJ	.
=16	=16	=16	=16	=16	=16	=16	=16
2.e;]	.	2.B;	-ren.	4A]	.	2.E;	-ren.
.	.	.	.	8G#L	.	.	.
.	.	.	.	8F#J	.	.	.
.	.	.	.	4G#;	-ren.	.	.
==|!	==|!	==|!	==|!	==|!	==|!	==|!	==|!
*-	*-	*-	*-	*-	*-	*-	*-
!!!RWG: Key is interpreted using the Humdrum key tool.
!!!END: 1994/05/25
!!!EMD: Converted from MuseData to Humdrum Dec 19, 2000, by Andreas Kornstaedt using muse2kern.
!!!EED: Craig Stuart Sapp
!!!EEV: 2024/03/31
!!!ONB: Some non-unicode characters
